X:2337
T:Grand Canal, The
O:england
R:reel
D:Molloy, Peoples, Brady
M:C|
K:Ador
ABcA GE~E2|GEAE GE~E2|ABcA GE~E2|DEGB A2AG|
ABcA GEEF|G2GA GEEG|AB (3cBA GEEB|cdec d2cd||
eaag ed~d2|cdeg gedg|eaag edcd|edcA d2cd|
eaag ed~d2|cdeg gedf|efge d2cd|edcA d2dc||
